X: 949
T: Gün Kavuştu, Su Karardı
C: Udî Nevres Bey
O: Turkey
F: http://compmusic.upf.edu/node/140
N: muhayyer--sarki--aksaksemai--gun_kavustu--udi_nevres_bey
N: makam= muhayyer
N: form= sarki
N: usul= aksaksemai = 10/8
M: 10/8
L: 1/16
K: C _2/4B ^3/4f  
Q: 1/4=120
%%MIDI tuningsystem comma53
z4 g2a3bc'c' baa4gf  | e4 d2ag fga2 baa4(3gfg  | 
w:  Gün  ka *  vuş *  *  *  tu   |  *  su  ka *  *  *  rar *  *  dı  SAZ  | 
a4 g2c'2 bad'2 c'bc'/b/a a4  | a4 b/a/bc'3d'c'b baa3gfg  | 
w:  *  be ni  *  *  üz *  *  me   |  *  *  *  *  *  *  gü *  ze *  lim   SAZ  | 
a4 g2a3bc'c' baa2 gfga  | e3d e=fag feed dcd4cB  | 
w:  *  Boy nun  *  bü *  *  *  küp   |  *  *  dü *  şün *  *  *  me  *  *  *  gel   | 
A4 G2A3Bcd {c}BAA6  | A4 B/A/Bc3dcB BAA3gfg  | 
w:  *  ver_ e *  li *  *  *  *  ni   |  *  *  *  *  *  *  gi *  de *  lim   SAZ  | 
a4 g2a3bc'c' baa2 gfga  | e3d e=fag feed dcd4cB  | 
w:  *  Boy nun  *  bü *  *  *  küp   |  *  *  dü *  şün *  *  *  me  *  *  *  gel   | 
A4 G2A3Bcd {c}BAA6  | A4 B/A/Bc3dcB BAA3gf^e  | 
w:  *  ver_ e *  li *  *  *  *  ni   |  *  *  *  *  *  *  gi *  de *  lim   SAZ  | 
f4 d2f4g3aa2 gf^ef  | ^ed^c^B c2d3efg/a/ gff4eg  | 
w:  *  Ka ra  güm *  rah   |  *  *  *  *  kir pik *  le *  *  *  *  rin  SAZ  | 
f4 ^efg2 f=e=f2 ede2 dcBg  | {^e}f4 d2=e3d=fe d^cd3g^3/4fg  | 
w:  *  kal *  dır  *  *  gö *  *  zün   |  *  *  *  *  *  gö *  re *  yim   SAZ  | 
a4 g2a3bc'c' baa2 gfga  | e3d e=fag feed dcd4cB  | 
w:  *  Ver_ e *  li *  *  *  ni   |  *  *  bak_ *  aş *  *  *  kı *  *  *  na   | 
A4 G2A3Bcd {c}BAA6  | A4 B/A/Bc3dcB BAA3gfg  | 
w:  *  iş te  *  şa *  *  *  *  hit   |  *  *  *  *  *  *  yü *  re *  ğim   SAZ  | 
a4 g2a3bc'c' baa2 gfga  | e3d e=fag feed dcd4cB  | 
w:  *  Ver_ e *  li *  *  *  ni   |  *  *  bak_ *  aş *  *  *  kı *  *  *  na   | 
A4 G2A3Bcd {c}BAA6  | A4 B/A/Bc3dcB BAA6  | |


